X: 68
T:Mc Kenna's Jig #3
M:6/8
L:1/8
S:Patrick Street
R:jig
K:D
f2 e dBA|BAB dBA|f2 e dBA|Bdf e2 e:|fef gag|faf fed|fef gfg|afd e2 e||fe
f gfg|faf fed|f2 e dBA|Bdf e3  ||
